svg/white/mith.svg

<svg height="32" viewBox="0 0 32 32" width="32" xmlns="http://www.w3.org/2000/svg"><path d="m16 32c-8.836556 0-16-7.163444-16-16s7.163444-16 16-16 16 7.163444 16 16-7.163444 16-16 16zm-.0074384-11.002102c3.4570684 0 6.9141367-.0004668 10.3711592.000887.2333593.0000933.4560259-.0412203.5749313-.2617467.1221637-.2265016.0451575-.4522563-.0848079-.6573775-.1075243-.1696895-.2195-.336438-.3290435-.5049605-.8889224-1.3665255-1.8356225-2.6983663-2.6534128-4.1076527-1.3534383-2.3321918-2.6250057-4.7135866-3.9271371-7.07649529-.12969-.23532454-.2961851-.40286665-.5721779-.38984234-.2617203.01232408-.3971927.20166674-.4991182.42373357-.864095 1.88334326-1.7292455 3.76617306-2.5938453 5.64928296-.1277625.278272-.1904047.2864414-.3627739.0419672-.8413327-1.1933816-1.6841799-2.3857362-2.5214741-3.5820588-.1440999-.2057748-.3367993-.3353643-.5631831-.25171-.163558.0604534-.3195439.2129638-.4215612.3644473-1.0405486 1.5441043-2.0670085 3.0979653-3.10273846 4.6454774-.32188445.4809192-.6171517.9901277-.99874127 1.4179692-1.00126531 1.1224716-2.04222695 2.2083443-3.07024713 3.3060275-.17948248.1916301-.3077498.3931101-.19742614.6658271.11633549.2877485.35827657.3185587.62637594.3183253 3.44174052-.0031277 6.88348106-.0020073 10.32522156-.0021007zm2.1632434-1.1113611c-.1617683.1268352-2.6103204.1254815-2.804626-.0178793.2680077-.2970383.5322062-.5927228.8018659-.8832256.0215691-.0232477.088158-.027169.1211082-.0118572.6217868.2895691 1.2416002.5833397 1.8615972.8767834.0055988.0026142.007618.0131177.0200547.0361787zm-5.6742804-7.1624371c-.0557584.552016-.0998604 1.0548758-.1634662 1.555168-.0114271.0900498-.0841654.1996128-.1605752.2490958-.4760805.3083354-.9600086.6041132-1.4449463.8980238-.0567222.0343581-.1352429.0315572-.2036674.0460287.015649-.0675024.0139052-.1468154.0494712-.2006398.5657072-.857037 1.1352233-1.7115065 1.7079059-2.5636884.0337763-.0502767.1020632-.0766054.154242-.1140912.026709.0569056.053418.1138577.061036.1301031zm11.9972859 7.2502462c-.2753043.0000933-.5506545-.0041081-.8258212.0017272-.1519475.0031743-.2041264-.0643747-.192837-.2127304.0596593-.7822056.1147751-1.5646446.1762242-2.3466634.0041761-.052704.0477732-.1021871.0730596-.1531173.0474061.0304834.1111956.0497165.139832.0930375.5272039.799758 1.0499106 1.6026904 1.5743151 2.4044557.1005028.1536776.0400635.2124503-.1189513.2130105-.2753044.0010737-.5505629.0002802-.8258214.0002802zm-17.73420847-.06008c.21252451-.2324303.37585309-.4142104.54253179-.5927695.47764091-.5118227.95821889-1.0207978 1.43411591-1.5343478.12239319-.1321104.19439728-.1411667.27245908.0462154.26695207.6410388.54326605 1.2781563.82210408 1.9139667.07287603.1662817.02900355.2282755-.14341159.227902-.89277732-.0016338-1.78560052.0000935-2.67837783-.0026141-.06135722-.0002801-.12266854-.0277292-.24942144-.0583527zm13.19565617-4.6131266c.1382718.0126508.2181692.0098499.2929268.028336.8358257.2067551 1.6708712.416918 2.5061922.6258205.3129355.0782392.4549245.2479753.4354205.5775043-.0457081.7745498-.1056887 1.5482592-.1594278 2.322342-.0118401.170343-.0160163.3414797-.0357496.5108891-.007205.0619004-.049196.1196929-.0753083.1793059-.0509858-.0376257-.1162896-.0649814-.1507085-.1146045-.5024224-.722079-1.0007146-1.4470989-1.4999246-2.1714653-.4028374-.5844601-.8059042-1.1688269-1.2076403-1.7540806-.0289577-.0422006-.0479569-.0914968-.1057804-.2040474zm-.2119279-5.1351262c.0464883.0646081.1001816.1251081.1385012.1943844.8668485 1.5682857 1.7325956 3.1372249 2.5951302 4.7079381.03731.0678758.0415779.1544244.0612655.2322901-.079255.0005602-.1623649.0175058-.2371225-.0008403-.8659765-.212637-1.7299338-.4337235-2.5964611-.6438863-.1427691-.0346382-.1832456-.1062952-.1790236-.2437274.0388244-1.2571494.0737021-2.5144388.1114251-3.7716349.0046351-.154191.0193663-.3080552.0294625-.4620129.0255617-.0041547.0511692-.0083561.0768227-.0125108zm-3.8852839 7.7071707c-.0930225-.0840745-.1513967-.127909-.1992159-.1815468-.8923643-1.0002577-1.7817915-2.0031763-2.6768634-3.0009131-.10679-.1189927-.1447424-.2335039-.1267529-.3954442.0753542-.6785246.1351052-1.3587763.2051359-2.0379078.0088112-.0855216.0444691-.1681956.0676903-.2522235.0312063-.0186728.0624586-.0373923.0936191-.0561119.0249651.0577459.0406601.1223072.076272.1721637.789934 1.1047323 1.5804187 2.2090444 2.374896 3.3103222.1933418.2679554.2831059.5583181.2679616.8914417-.0190909.4186919-.0196416.8382707-.0328584 1.2572894-.0024781.0800599-.0263877.1594195-.0498843.2929303zm.5773636-.2088091c.0192287-.8059201-.0425416-1.6049778.3458858-2.3795275.7338543-1.4632509 1.4025424-2.9603464 2.1029876-4.4411032.0308392-.0651681.1077538-.1077422.1631909-.1608665.0201006.0685294.0591085.1374788.0575483.205448-.0277187 1.2349287-.0591086 2.4697641-.09495 3.704506-.0020652.0698831-.0337763.1514834-.0778783.2056347-.7549186.9278071-1.5134627 1.8525798-2.2736588 2.7759054-.0433677.0527041-.1083045.0870155-.1631909.1299163-.0199629-.0132578-.0399717-.0265622-.0599346-.0399132zm-3.5037861 2.3102512c-.4892056-.0000933-.9784571.0026142-1.4676169-.003221-.0675984-.0007937-.1346921-.0437412-.2020152-.0671757.0255616-.0612001.0402011-.1306631.0781994-.1822469.7641429-1.0384904 1.5334714-2.072966 2.2945396-3.1136971.1201445-.1642744.1974261-.1645545.3309709-.0144248.5535.6220392 1.1150309 1.2367026 1.6784435 1.8494521.106331.1156315.1335908.1955513.0092242.3260279-.33478.351423-.6484499.7235727-.9835511 1.0747157-.0687917.0721238-.1932959.122167-.2936152.1248279-.4812204.0127443-.9629916.0057419-1.4445792.0057419zm.4986594-3.9658792c-.4218826.5656939-.8359175 1.1209777-1.2500444 1.6761214-.4934276.6614389-.98658 1.3232046-1.4807878 1.9840366-.1871004.2501695-.2338182.2454546-.3550182-.035385-.321242-.7446265-.63885848-1.4907467-.96354233-2.233786-.06525801-.1493827-.0808153-.2841072.0381819-.4056676.12780841-.1306631.24675973-.2802793.39760577-.375931.83431126-.528955 1.67903996-1.0409178 2.51523286-1.5669319.1397402-.0879024.2205096-.0743179.3239954.0529375.2471728.303994.5085719.5959906.7743768.904606zm5.7949755-.7873872c.3649309.5273212.6766273.9763097.9868553 1.4263721.7010418 1.0167365 1.4022671 2.0333796 2.0997293 3.0527303.0428629.062554.053785.1477022.0795762.2223469-.0709945.0172257-.1418972.0491562-.2129375.0495297-.7565249.0036412-1.5131414.0061154-2.2696204-.0015405-.1253303-.0013071-.2592422-.0322107-.3738798-.0842612-.9182013-.4172915-1.8320887-.8444795-2.7490969-1.2645252-.1473582-.0674556-.2139471-.1286559-.0836147-.2857412.7977815-.9617917 1.5902395-1.9280181 2.3831106-2.8939645.0433217-.0527974.074161-.116145.1398779-.2209464z" fill="#fff" fill-rule="evenodd"/></svg>

<svg xmlns="http://www.w3.org/2000/svg" width="32" height="32" viewBox="0 0 32 32">
  <path fill="#FFF" fill-rule="evenodd" d="M16,32 C7.163444,32 0,24.836556 0,16 C0,7.163444 7.163444,0 16,0 C24.836556,0 32,7.163444 32,16 C32,24.836556 24.836556,32 16,32 Z M15.9925616,20.997898 C19.44963,20.997898 22.9066983,20.9974312 26.3637208,20.998785 C26.5970801,20.9988783 26.8197467,20.9575647 26.9386521,20.7370383 C27.0608158,20.5105367 26.9838096,20.284782 26.8538442,20.0796608 C26.7463199,19.9099713 26.6343442,19.7432228 26.5248007,19.5747003 C25.6358783,18.2081748 24.6891782,16.876334 23.8713879,15.4670476 C22.5179496,13.1348558 21.2463822,10.753461 19.9442508,8.39055231 C19.8145608,8.15522777 19.6480657,7.98768566 19.3720729,8.00070997 C19.1103526,8.01303405 18.9748802,8.20237671 18.8729547,8.42444354 C18.0088597,10.3077868 17.1437092,12.1906166 16.2791094,14.0737265 C16.1513469,14.3519985 16.0887047,14.3601679 15.9163355,14.1156937 C15.0750028,12.9223121 14.2321556,11.7299575 13.3948614,10.5336349 C13.2507615,10.3278601 13.0580621,10.1982706 12.8316783,10.2819249 C12.6681203,10.3423783 12.5121344,10.4948887 12.4101171,10.6463722 C11.3695685,12.1904765 10.3431086,13.7443375 9.30737864,15.2918496 C8.98549419,15.7727688 8.69022694,16.2819773 8.30863737,16.7098188 C7.30737206,17.8322904 6.26641042,18.9181631 5.23839024,20.0158463 C5.05890776,20.2074764 4.93064044,20.4089564 5.0409641,20.6816734 C5.15729959,20.9694219 5.39924067,21.0002321 5.66734004,20.9999987 C9.10908056,20.996871 12.5508211,20.9979914 15.9925616,20.997898 Z M18.155805,19.8865369 C17.9940367,20.0133721 15.5454846,20.0120184 15.351179,19.8686576 C15.6191867,19.5716193 15.8833852,19.2759348 16.1530449,18.985432 C16.174614,18.9621843 16.2412029,18.958263 16.2741531,18.9735748 C16.8959399,19.2631439 17.5157533,19.5569145 18.1357503,19.8503582 C18.1413491,19.8529724 18.1433683,19.8634759 18.155805,19.8865369 Z M12.4815246,12.7240998 C12.4257662,13.2761158 12.3816642,13.7789756 12.3180584,14.2792678 C12.3066313,14.3693176 12.233893,14.4788806 12.1574832,14.5283636 C11.6814027,14.836699 11.1974746,15.1324768 10.7125369,15.4263874 C10.6558147,15.4607455 10.577294,15.4579446 10.5088695,15.4724161 C10.5245185,15.4049137 10.5227747,15.3256007 10.5583407,15.2717763 C11.1240479,14.4147393 11.693564,13.5602698 12.2662466,12.7080879 C12.3000229,12.6578112 12.3683098,12.6314825 12.4204886,12.5939967 C12.4471976,12.6509023 12.4739066,12.7078544 12.4815246,12.7240998 Z M24.4788105,19.974346 C24.2035062,19.9744393 23.928156,19.9702379 23.6529893,19.9760732 C23.5010418,19.9792475 23.4488629,19.9116985 23.4601523,19.7633428 C23.5198116,18.9811372 23.5749274,18.1986982 23.6363765,17.4166794 C23.6405526,17.3639754 23.6841497,17.3144923 23.7094361,17.2635621 C23.7568422,17.2940455 23.8206317,17.3132786 23.8492681,17.3565996 C24.376472,18.1563576 24.8991787,18.95929 25.4235832,19.7610553 C25.524086,19.9147329 25.4636467,19.9735056 25.3046319,19.9740658 C25.0293275,19.9751395 24.754069,19.974346 24.4788105,19.974346 Z M6.74460203,19.914266 C6.95712654,19.6818357 7.12045512,19.5000556 7.28713382,19.3214965 C7.76477473,18.8096738 8.24535271,18.3006987 8.72124973,17.7871487 C8.84364292,17.6550383 8.91564701,17.645982 8.99370881,17.8333641 C9.26066088,18.4744029 9.53697486,19.1115204 9.81581289,19.7473308 C9.88868892,19.9136125 9.84481644,19.9756063 9.6724013,19.9752328 C8.77962398,19.973599 7.88680078,19.9753263 6.99402347,19.9726187 C6.93266625,19.9723386 6.87135493,19.9448895 6.74460203,19.914266 Z M19.9402582,15.3011394 C20.07853,15.3137902 20.1584274,15.3109893 20.233185,15.3294754 C21.0690107,15.5362305 21.9040562,15.7463934 22.7393772,15.9552959 C23.0523127,16.0335351 23.1943017,16.2032712 23.1747977,16.5328002 C23.1290896,17.30735 23.069109,18.0810594 23.0153699,18.8551422 C23.0035298,19.0254852 22.9993536,19.1966219 22.9796203,19.3660313 C22.9724153,19.4279317 22.9304243,19.4857242 22.904312,19.5453372 C22.8533262,19.5077115 22.7880224,19.4803558 22.7536035,19.4307327 C22.2511811,18.7086537 21.7528889,17.9836338 21.2536789,17.2592674 C20.8508415,16.6748073 20.4477747,16.0904405 20.0460386,15.5051868 C20.0170809,15.4629862 19.9980817,15.41369 19.9402582,15.3011394 Z M19.7283303,10.1660132 C19.7748186,10.2306213 19.8285119,10.2911213 19.8668315,10.3603976 C20.73368,11.9286833 21.5994271,13.4976225 22.4619617,15.0683357 C22.4992717,15.1362115 22.5035396,15.2227601 22.5232272,15.3006258 C22.4439722,15.301186 22.3608623,15.3181316 22.2861047,15.2997855 C21.4201282,15.0871485 20.5561709,14.866062 19.6896436,14.6558992 C19.5468745,14.621261 19.506398,14.549604 19.51062,14.4121718 C19.5494444,13.1550224 19.5843221,11.897733 19.6220451,10.6405369 C19.6266802,10.4863459 19.6414114,10.3324817 19.6515076,10.178524 C19.6770693,10.1743693 19.7026768,10.1701679 19.7283303,10.1660132 Z M15.8430464,17.8731839 C15.7500239,17.7891094 15.6916497,17.7452749 15.6438305,17.6916371 C14.7514662,16.6913794 13.862039,15.6884608 12.9669671,14.690724 C12.8601771,14.5717313 12.8222247,14.4572201 12.8402142,14.2952798 C12.9155684,13.6167552 12.9753194,12.9365035 13.0453501,12.257372 C13.0541613,12.1718504 13.0898192,12.0891764 13.1130404,12.0051485 C13.1442467,11.9864757 13.175499,11.9677562 13.2066595,11.9490366 C13.2316246,12.0067825 13.2473196,12.0713438 13.2829315,12.1212003 C14.0728655,13.2259326 14.8633502,14.3302447 15.6578275,15.4315225 C15.8511693,15.6994779 15.9409334,15.9898406 15.9257891,16.3229642 C15.9066982,16.7416561 15.9061475,17.1612349 15.8929307,17.5802536 C15.8904526,17.6603135 15.866543,17.7396731 15.8430464,17.8731839 Z M16.42041,17.6643748 C16.4396387,16.8584547 16.3778684,16.059397 16.7662958,15.2848473 C17.5001501,13.8215964 18.1688382,12.3245009 18.8692834,10.8437441 C18.9001226,10.778576 18.9770372,10.7360019 19.0324743,10.6828776 C19.0525749,10.751407 19.0915828,10.8203564 19.0900226,10.8883256 C19.0623039,12.1232543 19.030914,13.3580897 18.9950726,14.5928316 C18.9930074,14.6627147 18.9612963,14.744315 18.9171943,14.7984663 C18.1622757,15.7262734 17.4037316,16.6510461 16.6435355,17.5743717 C16.6001678,17.6270758 16.535231,17.6613872 16.4803446,17.704288 C16.4603817,17.6910302 16.4403729,17.6777258 16.42041,17.6643748 Z M12.9166239,19.974626 C12.4274183,19.9745327 11.9381668,19.9772402 11.449007,19.971405 C11.3814086,19.9706113 11.3143149,19.9276638 11.2469918,19.9042293 C11.2725534,19.8430292 11.2871929,19.7735662 11.3251912,19.7219824 C12.0893341,18.683492 12.8586626,17.6490164 13.6197308,16.6082853 C13.7398753,16.4440109 13.8171569,16.4437308 13.9507017,16.5938605 C14.5042017,17.2158997 15.0657326,17.8305631 15.6291452,18.4433126 C15.7354762,18.5589441 15.762736,18.6388639 15.6383694,18.7693405 C15.3035894,19.1207635 14.9899195,19.4929132 14.6548183,19.8440562 C14.5860266,19.91618 14.4615224,19.9662232 14.3612031,19.9688841 C13.8799827,19.9816284 13.3982115,19.974626 12.9166239,19.974626 Z M13.4152833,16.0087468 C12.9934007,16.5744407 12.5793658,17.1297245 12.1652389,17.6848682 C11.6718113,18.3463071 11.1786589,19.0080728 10.6844511,19.6689048 C10.4973507,19.9190743 10.4506329,19.9143594 10.3294329,19.6335198 C10.0081909,18.8888933 9.69057442,18.1427731 9.36589057,17.3997338 C9.30063256,17.2503511 9.28507527,17.1156266 9.40407247,16.9940662 C9.53188088,16.8634031 9.6508322,16.7137869 9.80167824,16.6181352 C10.6359895,16.0891802 11.4807182,15.5772174 12.3169111,15.0512033 C12.4566513,14.9633009 12.5374207,14.9768854 12.6409065,15.1041408 C12.8880793,15.4081348 13.1494784,15.7001314 13.4152833,16.0087468 Z M19.2102588,15.2213596 C19.5751897,15.7486808 19.8868861,16.1976693 20.1971141,16.6477317 C20.8981559,17.6644682 21.5993812,18.6811113 22.2968434,19.700462 C22.3397063,19.763016 22.3506284,19.8481642 22.3764196,19.9228089 C22.3054251,19.9400346 22.2345224,19.9719651 22.1634821,19.9723386 C21.4069572,19.9759798 20.6503407,19.978454 19.8938617,19.9707981 C19.7685314,19.969491 19.6346195,19.9385874 19.5199819,19.8865369 C18.6017806,19.4692454 17.6878932,19.0420574 16.770885,18.6220117 C16.6235268,18.5545561 16.5569379,18.4933558 16.6872703,18.3362705 C17.4850518,17.3744788 18.2775098,16.4082524 19.0703809,15.442306 C19.1137026,15.3895086 19.1445419,15.326161 19.2102588,15.2213596 Z"/>
</svg>
